assets/fa/fa-shapes.svg

<svg xmlns="http://www.w3.org/2000/svg" width="100%" height="100%" viewBox="-43.52 -43.52 599.04 599.04"><path d="M128 256a128 128 0 10128 128 128 128 0 00-128-128zm379-54.86L400.07 18.29a37.26 37.26 0 00-64.14 0L229 201.14c-14.24 24.38 3.58 54.86 32.09 54.86h213.82c28.51 0 46.33-30.48 32.09-54.86zM480 288H320a32 32 0 00-32 32v160a32 32 0 0032 32h160a32 32 0 0032-32V320a32 32 0 00-32-32z"/></svg>

<svg xmlns="http://www.w3.org/2000/svg" width="100%" height="100%" viewBox="-43.52 -43.52 599.04 599.04"><path d="M128,256A128,128,0,1,0,256,384,128,128,0,0,0,128,256Zm379-54.86L400.07,18.29a37.26,37.26,0,0,0-64.14,0L229,201.14C214.76,225.52,232.58,256,261.09,256H474.91C503.42,256,521.24,225.52,507,201.14ZM480,288H320a32,32,0,0,0-32,32V480a32,32,0,0,0,32,32H480a32,32,0,0,0,32-32V320A32,32,0,0,0,480,288Z"/></svg>
